X:1
T:Title
%%score ( 1 2 ) { 3 | 4 }
L:1/8
Q:1/4=105
M:6/8
K:G
V:1 treble nm="Grand Piano, Soprano"
V:2 treble 
V:3 treble nm="Choir Pad, He Saves Me (Flaville)"
V:4 bass 
V:1
 D [GB]2 [GB] [GB]2 | [Gd] [DG]2 [DG] [DG]2- | [DG] [FA]2 [FA] [FA]2- | [FA] [GB]2 [Ac] [Bd]2 | %4
w: By~John~Robson~Sweney * * *||||
 [Ac] [GB]2 [GB] [GB]2 | [Gd] [EG]2 [EG] [Ec]2 | [Ec] [DB]2 [Gd] [Fc]2 | %7
w: |||
 [DF][DA][DG]- [DG]2- [DG]/ z/ | [DG] [EG]2 [Ec] [Ec]2 | [Ge] [Ge]2 [Gd] [Gd]2 | %10
w: |||
 [GB] [FA]2 [GB] [Ac]2 | [FA] [GB]2 [Fc] [Gd]2 | D [DG]2 G [FA]2 | [=FB] [Ec]2 [Ec] [Ge]2 | %14
w: ||||
 [Ge] [Gd]2 [DG] [DA]2 | [DB][DA][DG]- [DG]2- [DG]/ z/ | z [Gd]2- [Gd] [GB]2- | %17
w: |||
 [GB] [FA]2- [FA] [Fd]2 | [Ac] [GB]2 [GB]GA | [GB][GB][FA]- [FA]2- [FA]/ z/ | D [DG]2 G [FA]2 | %21
w: ||||
 [=FB] [Ec]2 [Ec] [Ge]2 | [Ge] [Gd]2 [DG] [DA]2 | [DB][DA][DG]- [DG]3- | [DG]6 |] %25
w: ||||
V:2
 x6 | x6 | x6 | x6 | x6 | x6 | x6 | x6 | x6 | x6 | x6 | x6 | x6 | x6 | x6 | x6 | x6 | x6 | %18
 z3 z D2 | x6 | x6 | x6 | x6 | x6 | x6 |] %25
V:3
 B, D2 D D2 | B,[K:bass] B,2 B, B,2- | B, D2[K:treble] D D2- | D D2 D D2 | D D2 D D2 | %5
 B, C2 C[K:bass] G,2 | G, G,2 B, A,2 | CCB,- B,2- B,/ z/ | B, C2 G, G,2 | C C2 B, B,2 | D D2 D D2 | %11
 D D2 D D2 | C B,2 B, C2 | D C2 G, C2 | C B,2 B, C2 | DC[K:bass]B,- B,2- B,/ z/ | %16
 z B,2- B,[K:treble] D2- | D D2- D A,2 | D D2 DB,C | DDD- D2- D/ z/ | C B,2 B, C2 | D C2 G, C2 | %22
 C[K:bass] B,2 B, C2 | DCB,- B,3- | B,6 |] %25
V:4
 G, G,2 G, G,2 | G, G,2 G, G,2- | G, D,2 D, D,2- | D, G,2 G, G,2 | G, G,2 G, G,2 | G, C,2 C, C,2 | %6
 C, D,2 D, D,2 | D,D,G,,- G,,2- G,,/ z/ | G, C,2 C, C,2 | C, G,2 G, G,2 | G, D,2 D, D,2 | %11
 D, G,2 A, B,2 | A, G,2 G, G,2 | G, C,2 C, C,2 | C, D,2 D, D,2 | D,D,G,,- G,,2- G,,/ z/ | %16
 z G,2- G, G,2- | G, D,2- D, D,2 | F, G,2 G, G,2 | G,D,D,- D,2- D,/ z/ | D, G,,2 G, G,2 | %21
 G, C,2 C, C,2 | C, D,2 D, D,2 | D,D,G,,- G,,3- | G,,6 |] %25

